docs/img/icons/logo.svg

<svg width="242" height="73" viewBox="0 0 242 73" fill="none" xmlns="http://www.w3.org/2000/svg">
<path d="M16.0605 12.9063V3.61761L11.1188 11.3433H10.216L5.32182 3.66227V12.9063H3.46869V0.134369H5.03673L10.6912 9.11042L16.2981 0.134369H17.8661V12.8616H16.0605V12.9063Z" fill="#646865"/>
<path d="M22.7132 0.134369H24.6138V9.95889L32.6441 0.134369H34.4022V12.8616H32.5015V3.03707L24.4713 12.8616H22.7132V0.134369Z" fill="#646865"/>
<path d="M43.953 7.27948H41.102V12.9063H39.2013V0.134369H41.102V5.67183H43.953L48.2294 0.134369H50.3201L45.4735 6.29703L50.5577 12.8616H48.372L43.953 7.27948Z" fill="#646865"/>
<path d="M62.579 1.34011C63.5769 2.14393 64.0995 3.2157 64.0995 4.60006C64.0995 5.98443 63.5769 7.05619 62.579 7.86002C61.5812 8.66384 60.2032 9.0211 58.4451 9.0211H55.0714V12.8616H53.1233V0.134369H58.3976C60.1557 0.134369 61.5337 0.536281 62.579 1.34011ZM61.1535 6.69894C61.8188 6.20771 62.1038 5.4932 62.1038 4.60006C62.1038 3.66227 61.7712 2.99241 61.1535 2.50119C60.4883 2.00996 59.5855 1.74202 58.3501 1.74202H55.0714V7.45811H58.3501C59.5855 7.45811 60.5358 7.19016 61.1535 6.69894Z" fill="#646865"/>
<path d="M69.9446 12.1913C68.8517 11.6108 67.9964 10.8516 67.3787 9.86914C66.761 8.88669 66.4284 7.77028 66.4284 6.51989C66.4284 5.31415 66.761 4.19774 67.3787 3.17063C67.9964 2.18818 68.8517 1.38436 69.9446 0.848478C71.0374 0.267941 72.2729 0 73.6508 0C75.0288 0 76.2167 0.267941 77.3096 0.848478C78.4025 1.42902 79.2578 2.18818 79.8755 3.17063C80.4932 4.15308 80.8258 5.2695 80.8258 6.51989C80.8258 7.77028 80.4932 8.88669 79.8755 9.86914C79.2578 10.8516 78.4025 11.6554 77.3096 12.1913C76.2167 12.7718 74.9813 13.0398 73.6508 13.0398C72.2729 13.0398 71.0374 12.7272 69.9446 12.1913ZM76.3117 10.7623C77.1195 10.3157 77.7372 9.73517 78.2124 9.02067C78.6876 8.2615 78.8776 7.45768 78.8776 6.51989C78.8776 5.5821 78.64 4.77827 78.2124 4.01911C77.7372 3.25994 77.1195 2.67941 76.3117 2.27749C75.504 1.83093 74.6012 1.6523 73.6508 1.6523C72.653 1.6523 71.7502 1.87558 70.9424 2.27749C70.1346 2.72406 69.5169 3.3046 69.0418 4.01911C68.5666 4.77827 68.3765 5.5821 68.3765 6.51989C68.3765 7.45768 68.6141 8.2615 69.0418 9.02067C69.5169 9.77983 70.1346 10.3604 70.9424 10.7623C71.7502 11.2088 72.653 11.3875 73.6508 11.3875C74.6487 11.4321 75.5515 11.2088 76.3117 10.7623Z" fill="#646865"/>
<path d="M93.4169 1.74202H86.432V12.9063H84.5314V0.134369H93.4169V1.74202Z" fill="#646865"/>
<path d="M97.0292 12.1913C95.9363 11.6108 95.081 10.8516 94.4633 9.86914C93.8456 8.88669 93.513 7.77028 93.513 6.51989C93.513 5.31415 93.8456 4.19774 94.4633 3.17063C95.081 2.18818 95.9363 1.38436 97.0292 0.848478C98.122 0.267941 99.3574 0 100.735 0C102.113 0 103.301 0.267941 104.394 0.848478C105.487 1.42902 106.342 2.18818 106.96 3.17063C107.578 4.15308 107.91 5.2695 107.91 6.51989C107.91 7.77028 107.578 8.88669 106.96 9.86914C106.342 10.8516 105.487 11.6554 104.394 12.1913C103.301 12.7718 102.066 13.0398 100.735 13.0398C99.3574 13.0398 98.122 12.7272 97.0292 12.1913ZM103.396 10.7623C104.204 10.3157 104.822 9.73517 105.297 9.02067C105.772 8.2615 105.962 7.45768 105.962 6.51989C105.962 5.5821 105.725 4.77827 105.297 4.01911C104.822 3.25994 104.204 2.67941 103.396 2.27749C102.589 1.83093 101.686 1.6523 100.735 1.6523C99.7376 1.6523 98.8348 1.87558 98.027 2.27749C97.2192 2.72406 96.6015 3.3046 96.1263 4.01911C95.6512 4.77827 95.4611 5.5821 95.4611 6.51989C95.4611 7.45768 95.6987 8.2615 96.1263 9.02067C96.6015 9.77983 97.2192 10.3604 98.027 10.7623C98.8348 11.2088 99.7376 11.3875 100.735 11.3875C101.686 11.4321 102.589 11.2088 103.396 10.7623Z" fill="#646865"/>
<path d="M121.024 1.34011C122.022 2.14393 122.545 3.2157 122.545 4.60006C122.545 5.98443 122.022 7.05619 121.024 7.86002C120.026 8.66384 118.648 9.0211 116.89 9.0211H113.564V12.8616H111.616V0.134369H116.89C118.648 0.134369 120.026 0.536281 121.024 1.34011ZM119.646 6.69894C120.311 6.20771 120.597 5.4932 120.597 4.60006C120.597 3.66227 120.264 2.99241 119.646 2.50119C118.981 2.00996 118.078 1.74202 116.843 1.74202H113.564V7.45811H116.843C118.078 7.45811 119.029 7.19016 119.646 6.69894Z" fill="#646865"/>
<path d="M128.436 12.1913C127.343 11.6108 126.488 10.8516 125.87 9.86914C125.253 8.88669 124.92 7.77028 124.92 6.51989C124.92 5.31415 125.253 4.19774 125.87 3.17063C126.488 2.18818 127.343 1.38436 128.436 0.848478C129.529 0.267941 130.765 0 132.143 0C133.52 0 134.708 0.267941 135.801 0.848478C136.894 1.42902 137.749 2.18818 138.367 3.17063C138.985 4.15308 139.317 5.2695 139.317 6.51989C139.317 7.77028 138.985 8.88669 138.367 9.86914C137.749 10.8516 136.894 11.6554 135.801 12.1913C134.708 12.7718 133.473 13.0398 132.143 13.0398C130.765 13.0398 129.529 12.7272 128.436 12.1913ZM134.803 10.7623C135.611 10.3157 136.229 9.73517 136.704 9.02067C137.179 8.2615 137.369 7.45768 137.369 6.51989C137.369 5.5821 137.132 4.77827 136.704 4.01911C136.229 3.25994 135.611 2.67941 134.803 2.27749C133.996 1.83093 133.093 1.6523 132.143 1.6523C131.145 1.6523 130.242 1.87558 129.434 2.27749C128.626 2.72406 128.009 3.3046 127.533 4.01911C127.058 4.77827 126.868 5.5821 126.868 6.51989C126.868 7.45768 127.106 8.2615 127.533 9.02067C128.009 9.77983 128.626 10.3604 129.434 10.7623C130.242 11.2088 131.145 11.3875 132.143 11.3875C133.093 11.4321 133.996 11.2088 134.803 10.7623Z" fill="#646865"/>
<path d="M155.569 11.2985V15.6749H153.763V12.9061H142.597V15.6749H140.791V11.2985H141.457C142.312 11.2538 142.93 10.6286 143.262 9.37825C143.595 8.17252 143.832 6.4309 143.88 4.19806L144.022 0.0896301H153.573V11.2538H155.569V11.2985ZM145.163 8.84237C144.925 10.0034 144.545 10.8519 144.022 11.2985H151.673V1.74193H145.733L145.638 4.42134C145.543 6.20762 145.4 7.68129 145.163 8.84237Z" fill="#646865"/>
<path d="M74.9803 27.866H63.1487V50.1051H74.9803C81.5375 50.1051 86.8118 45.1036 86.8118 38.9856C86.8118 32.8229 81.49 27.866 74.9803 27.866Z" fill="url(#paint0_linear_105_334)"/>
<path d="M11.8315 27.866C5.32182 27.866 0 32.8229 0 38.9856C0 45.1482 5.32182 50.1051 11.8315 50.1051H23.6631H39.4385V27.866H11.8315Z" fill="url(#paint1_linear_105_334)"/>
<path d="M139.412 27.866V72.3443H155.188V27.866H139.412Z" fill="url(#paint2_linear_105_334)"/>
<path d="M210.401 27.8658H226.176V13.0397C217.481 13.0397 210.401 19.6489 210.401 27.8658Z" fill="url(#paint3_linear_105_334)"/>
<path d="M210.402 27.8661H194.626V72.3443H210.402V27.8661Z" fill="url(#paint4_linear_105_334)"/>
<path d="M23.6631 50.105L0 72.3441H39.4385V62.7428V50.105V35.2789L23.6631 50.105Z" fill="url(#paint5_linear_105_334)"/>
<path d="M107.862 50.1052H92.0861V64.9313V72.3443H107.862H131.525C131.525 60.0637 120.929 50.1052 107.862 50.1052Z" fill="url(#paint6_linear_105_334)"/>
<path d="M155.188 57.5182L139.412 72.3443H155.188H186.739V27.866L155.188 57.5182Z" fill="url(#paint7_linear_105_334)"/>
<path d="M210.402 57.5182L194.626 72.3443H210.402H242V27.866L210.402 57.5182Z" fill="url(#paint8_linear_105_334)"/>
<path d="M47.3263 42.6921V50.1051H63.1492V27.866L47.3263 42.6921Z" fill="#656966"/>
<path d="M74.9808 27.866H63.1492L47.3263 42.6921V50.1051H63.1017H74.9333C81.4905 50.1051 86.7648 45.1036 86.7648 38.9856C86.8124 32.8229 81.4905 27.866 74.9808 27.866Z" fill="url(#paint9_linear_105_334)"/>
<path d="M63.1492 27.866L47.3263 42.6921V72.3443H63.1492V27.866Z" fill="url(#paint10_linear_105_334)"/>
<path d="M92.0393 27.866V50.1051V64.9312L107.862 50.1051L131.525 27.866H92.0393Z" fill="url(#paint11_linear_105_334)"/>
<defs>
<linearGradient id="paint0_linear_105_334" x1="63.1261" y1="38.9812" x2="86.7978" y2="38.9812" gradientUnits="userSpaceOnUse">
<stop stop-color="#2C8DCD"/>
<stop offset="0.1915" stop-color="#3493CE"/>
<stop offset="0.4946" stop-color="#49A3CE"/>
<stop offset="0.8693" stop-color="#69BCCB"/>
<stop offset="1" stop-color="#75C6C8"/>
</linearGradient>
<linearGradient id="paint1_linear_105_334" x1="9.14607" y1="52.1837" x2="35.5008" y2="24.1415" gradientUnits="userSpaceOnUse">
<stop offset="0.0250496" stop-color="#E53322"/>
<stop offset="0.3378" stop-color="#E23122"/>
<stop offset="0.6133" stop-color="#D82A23"/>
<stop offset="0.8741" stop-color="#C72023"/>
<stop offset="1" stop-color="#BD1823"/>
</linearGradient>
<linearGradient id="paint2_linear_105_334" x1="131.516" y1="64.9394" x2="161.125" y2="33.4344" gradientUnits="userSpaceOnUse">
<stop offset="0.2763" stop-color="#8DCFEE"/>
<stop offset="0.5857" stop-color="#67B9E6"/>
<stop offset="0.9594" stop-color="#30A3DD"/>
</linearGradient>
<linearGradient id="paint3_linear_105_334" x1="212.735" y1="30.03" x2="227.538" y2="14.2784" gradientUnits="userSpaceOnUse">
<stop stop-color="#A7C521"/>
<stop offset="1" stop-color="#82B428"/>
</linearGradient>
<linearGradient id="paint4_linear_105_334" x1="186.751" y1="64.9386" x2="216.359" y2="33.4355" gradientUnits="userSpaceOnUse">
<stop offset="0.1534" stop-color="#C6D215"/>
<stop offset="1" stop-color="#82B428"/>
</linearGradient>
<linearGradient id="paint5_linear_105_334" x1="9.8629" y1="81.6243" x2="46.8737" y2="42.2437" gradientUnits="userSpaceOnUse">
<stop offset="0.2763" stop-color="#8DCFEE"/>
<stop offset="0.5857" stop-color="#67B9E6"/>
<stop offset="0.9594" stop-color="#30A3DD"/>
</linearGradient>
<linearGradient id="paint6_linear_105_334" x1="96.0053" y1="76.062" x2="119.108" y2="51.4798" gradientUnits="userSpaceOnUse">
<stop offset="0.2763" stop-color="#8DCFEE"/>
<stop offset="0.5857" stop-color="#67B9E6"/>
<stop offset="0.9594" stop-color="#30A3DD"/>
</linearGradient>
<linearGradient id="paint7_linear_105_334" x1="151.242" y1="83.4782" x2="195.653" y2="36.2239" gradientUnits="userSpaceOnUse">
<stop offset="0.0250496" stop-color="#E53322"/>
<stop offset="0.3378" stop-color="#E23122"/>
<stop offset="0.6133" stop-color="#D82A23"/>
<stop offset="0.8741" stop-color="#C72023"/>
<stop offset="1" stop-color="#BD1823"/>
</linearGradient>
<linearGradient id="paint8_linear_105_334" x1="206.479" y1="83.479" x2="250.89" y2="36.2239" gradientUnits="userSpaceOnUse">
<stop stop-color="#F3D719"/>
<stop offset="1" stop-color="#E85C0D"/>
</linearGradient>
<linearGradient id="paint9_linear_105_334" x1="53.5023" y1="55.892" x2="79.8575" y2="27.8493" gradientUnits="userSpaceOnUse">
<stop offset="0.2178" stop-color="#C6D215"/>
<stop offset="1" stop-color="#82B428"/>
</linearGradient>
<linearGradient id="paint10_linear_105_334" x1="43.3989" y1="68.6468" x2="73.0068" y2="37.1431" gradientUnits="userSpaceOnUse">
<stop stop-color="#F3D719"/>
<stop offset="1" stop-color="#E85C0D"/>
</linearGradient>
<linearGradient id="paint11_linear_105_334" x1="82.1984" y1="55.6671" x2="119.205" y2="16.2904" gradientUnits="userSpaceOnUse">
<stop stop-color="#F3D719"/>
<stop offset="1" stop-color="#E85C0D"/>
</linearGradient>
</defs>
</svg>

<svg width="242" height="73" fill="none" xmlns="http://www.w3.org/2000/svg"><path d="M16.06 12.906V3.618l-4.941 7.725h-.903l-4.894-7.68v9.243H3.469V.134h1.568L10.69 9.11 16.298.134h1.568v12.728h-1.805v.044zM22.713.134h1.9V9.96L32.645.134h1.758v12.728h-1.9V3.037l-8.03 9.825h-1.759V.134zm21.24 7.146h-2.851v5.626h-1.9V.134h1.9v5.538h2.851L48.229.134h2.091l-4.846 6.163 5.084 6.565h-2.186l-4.419-5.583zm18.626-5.94c.998.804 1.52 1.876 1.52 3.26s-.522 2.456-1.52 3.26c-.998.804-2.376 1.161-4.134 1.161h-3.374v3.84h-1.948V.135h5.275c1.758 0 3.136.402 4.181 1.206zM61.154 6.7c.665-.491.95-1.206.95-2.099 0-.938-.333-1.608-.95-2.099-.666-.491-1.569-.759-2.804-.759h-3.279v5.716h3.28c1.235 0 2.185-.268 2.803-.76zm8.791 5.491c-1.093-.58-1.949-1.34-2.566-2.322a6.177 6.177 0 01-.95-3.35c0-1.205.332-2.321.95-3.348A6.263 6.263 0 0169.945.848C71.037.268 72.273 0 73.65 0c1.378 0 2.566.268 3.659.848 1.093.581 1.948 1.34 2.566 2.323.617.982.95 2.099.95 3.349s-.333 2.367-.95 3.35a6.263 6.263 0 01-2.566 2.321c-1.093.58-2.329.849-3.66.849a8.325 8.325 0 01-3.705-.849zm6.367-1.429a5.324 5.324 0 001.9-1.741c.476-.76.666-1.563.666-2.501s-.238-1.742-.666-2.5a4.63 4.63 0 00-1.9-1.743c-.808-.446-1.71-.625-2.661-.625-.998 0-1.9.224-2.709.625a5.323 5.323 0 00-1.9 1.742c-.475.76-.666 1.563-.666 2.5 0 .939.238 1.742.666 2.502a4.63 4.63 0 001.9 1.741c.808.447 1.711.625 2.709.625.998.045 1.9-.178 2.66-.625zm17.105-9.02h-6.985v11.164h-1.9V.134h8.885v1.608zm3.613 10.449c-1.094-.58-1.949-1.34-2.567-2.322a6.177 6.177 0 01-.95-3.35c0-1.205.333-2.321.95-3.348A6.263 6.263 0 0197.03.848C98.122.268 99.357 0 100.735 0c1.378 0 2.566.268 3.659.848 1.093.581 1.948 1.34 2.566 2.323.618.982.95 2.099.95 3.349s-.332 2.367-.95 3.35a6.265 6.265 0 01-2.566 2.321c-1.093.58-2.328.849-3.659.849a8.324 8.324 0 01-3.706-.849zm6.366-1.429a5.322 5.322 0 001.901-1.741c.475-.76.665-1.563.665-2.501s-.237-1.742-.665-2.5a4.629 4.629 0 00-1.901-1.743c-.807-.446-1.71-.625-2.661-.625-.997 0-1.9.224-2.708.625a5.324 5.324 0 00-1.9 1.742c-.476.76-.666 1.563-.666 2.5 0 .939.238 1.742.665 2.502a4.63 4.63 0 001.901 1.741c.808.447 1.71.625 2.708.625a4.97 4.97 0 002.661-.625zm17.628-9.422c.998.804 1.521 1.876 1.521 3.26s-.523 2.456-1.521 3.26c-.998.804-2.376 1.161-4.134 1.161h-3.326v3.84h-1.948V.135h5.274c1.758 0 3.136.402 4.134 1.206zm-1.378 5.36c.665-.491.951-1.206.951-2.099 0-.938-.333-1.608-.951-2.099-.665-.491-1.568-.759-2.803-.759h-3.279v5.716h3.279c1.235 0 2.186-.268 2.803-.76zm8.79 5.491c-1.093-.58-1.948-1.34-2.566-2.322a6.183 6.183 0 01-.95-3.35c0-1.205.333-2.321.95-3.348a6.265 6.265 0 012.566-2.323c1.093-.58 2.329-.848 3.707-.848 1.377 0 2.565.268 3.658.848 1.093.581 1.948 1.34 2.566 2.323.618.982.95 2.099.95 3.349s-.332 2.367-.95 3.35a6.265 6.265 0 01-2.566 2.321c-1.093.58-2.328.849-3.658.849a8.329 8.329 0 01-3.707-.849zm6.367-1.429a5.322 5.322 0 001.901-1.741c.475-.76.665-1.563.665-2.501s-.237-1.742-.665-2.5a4.629 4.629 0 00-1.901-1.743c-.807-.446-1.71-.625-2.66-.625a6.01 6.01 0 00-2.709.625 5.33 5.33 0 00-1.901 1.742c-.475.76-.665 1.563-.665 2.5 0 .939.238 1.742.665 2.502a4.635 4.635 0 001.901 1.741c.808.447 1.711.625 2.709.625a4.968 4.968 0 002.66-.625zm20.766.537v4.376h-1.806v-2.769h-11.166v2.769h-1.806v-4.377h.666c.855-.044 1.473-.67 1.805-1.92.333-1.205.57-2.947.618-5.18l.142-4.108h9.551v11.164h1.996v.045zm-10.406-2.457c-.238 1.161-.618 2.01-1.141 2.457h7.651V1.742h-5.94l-.095 2.68c-.095 1.786-.238 3.26-.475 4.42z" fill="#646865"/><path d="M74.98 27.866H63.15v22.24h11.83c6.557 0 11.832-5.002 11.832-11.12 0-6.163-5.322-11.12-11.832-11.12z" fill="url(#paint0_linear_105_334)"/><path d="M11.832 27.866C5.322 27.866 0 32.823 0 38.986c0 6.162 5.322 11.12 11.832 11.12h27.606v-22.24H11.831z" fill="url(#paint1_linear_105_334)"/><path d="M139.412 27.866v44.478h15.776V27.866h-15.776z" fill="url(#paint2_linear_105_334)"/><path d="M210.401 27.866h15.775V13.04c-8.695 0-15.775 6.609-15.775 14.826z" fill="url(#paint3_linear_105_334)"/><path d="M210.402 27.866h-15.776v44.478h15.776V27.866z" fill="url(#paint4_linear_105_334)"/><path d="M23.663 50.105L0 72.345h39.438V35.278L23.663 50.105z" fill="url(#paint5_linear_105_334)"/><path d="M107.862 50.105H92.086v22.239h39.439c0-12.28-10.596-22.239-23.663-22.239z" fill="url(#paint6_linear_105_334)"/><path d="M155.188 57.518l-15.776 14.826h47.327V27.866l-31.551 29.652z" fill="url(#paint7_linear_105_334)"/><path d="M210.402 57.518l-15.776 14.826H242V27.866l-31.598 29.652z" fill="url(#paint8_linear_105_334)"/><path d="M47.326 42.692v7.413H63.15V27.866L47.326 42.692z" fill="#656966"/><path d="M74.98 27.866H63.15L47.325 42.692v7.413h27.607c6.557 0 11.832-5.001 11.832-11.12.047-6.162-5.275-11.119-11.784-11.119z" fill="url(#paint9_linear_105_334)"/><path d="M63.15 27.866L47.325 42.692v29.652H63.15V27.866z" fill="url(#paint10_linear_105_334)"/><path d="M92.04 27.866v37.065l15.822-14.826 23.663-22.239H92.039z" fill="url(#paint11_linear_105_334)"/><defs><linearGradient id="paint0_linear_105_334" x1="63.126" y1="38.981" x2="86.798" y2="38.981" gradientUnits="userSpaceOnUse"><stop stop-color="#2C8DCD"/><stop offset=".192" stop-color="#3493CE"/><stop offset=".495" stop-color="#49A3CE"/><stop offset=".869" stop-color="#69BCCB"/><stop offset="1" stop-color="#75C6C8"/></linearGradient><linearGradient id="paint1_linear_105_334" x1="9.146" y1="52.184" x2="35.501" y2="24.142" gradientUnits="userSpaceOnUse"><stop offset=".025" stop-color="#E53322"/><stop offset=".338" stop-color="#E23122"/><stop offset=".613" stop-color="#D82A23"/><stop offset=".874" stop-color="#C72023"/><stop offset="1" stop-color="#BD1823"/></linearGradient><linearGradient id="paint2_linear_105_334" x1="131.516" y1="64.939" x2="161.125" y2="33.434" gradientUnits="userSpaceOnUse"><stop offset=".276" stop-color="#8DCFEE"/><stop offset=".586" stop-color="#67B9E6"/><stop offset=".959" stop-color="#30A3DD"/></linearGradient><linearGradient id="paint3_linear_105_334" x1="212.735" y1="30.03" x2="227.538" y2="14.278" gradientUnits="userSpaceOnUse"><stop stop-color="#A7C521"/><stop offset="1" stop-color="#82B428"/></linearGradient><linearGradient id="paint4_linear_105_334" x1="186.751" y1="64.939" x2="216.359" y2="33.435" gradientUnits="userSpaceOnUse"><stop offset=".153" stop-color="#C6D215"/><stop offset="1" stop-color="#82B428"/></linearGradient><linearGradient id="paint5_linear_105_334" x1="9.863" y1="81.624" x2="46.874" y2="42.244" gradientUnits="userSpaceOnUse"><stop offset=".276" stop-color="#8DCFEE"/><stop offset=".586" stop-color="#67B9E6"/><stop offset=".959" stop-color="#30A3DD"/></linearGradient><linearGradient id="paint6_linear_105_334" x1="96.005" y1="76.062" x2="119.108" y2="51.48" gradientUnits="userSpaceOnUse"><stop offset=".276" stop-color="#8DCFEE"/><stop offset=".586" stop-color="#67B9E6"/><stop offset=".959" stop-color="#30A3DD"/></linearGradient><linearGradient id="paint7_linear_105_334" x1="151.242" y1="83.478" x2="195.653" y2="36.224" gradientUnits="userSpaceOnUse"><stop offset=".025" stop-color="#E53322"/><stop offset=".338" stop-color="#E23122"/><stop offset=".613" stop-color="#D82A23"/><stop offset=".874" stop-color="#C72023"/><stop offset="1" stop-color="#BD1823"/></linearGradient><linearGradient id="paint8_linear_105_334" x1="206.479" y1="83.479" x2="250.89" y2="36.224" gradientUnits="userSpaceOnUse"><stop stop-color="#F3D719"/><stop offset="1" stop-color="#E85C0D"/></linearGradient><linearGradient id="paint9_linear_105_334" x1="53.502" y1="55.892" x2="79.858" y2="27.849" gradientUnits="userSpaceOnUse"><stop offset=".218" stop-color="#C6D215"/><stop offset="1" stop-color="#82B428"/></linearGradient><linearGradient id="paint10_linear_105_334" x1="43.399" y1="68.647" x2="73.007" y2="37.143" gradientUnits="userSpaceOnUse"><stop stop-color="#F3D719"/><stop offset="1" stop-color="#E85C0D"/></linearGradient><linearGradient id="paint11_linear_105_334" x1="82.198" y1="55.667" x2="119.205" y2="16.29" gradientUnits="userSpaceOnUse"><stop stop-color="#F3D719"/><stop offset="1" stop-color="#E85C0D"/></linearGradient></defs></svg>
